X: 9645
T: Day Paddy Moloney Died, The
R: reel
M: 4/4
K: Adorian
|:A2 eAgA eA|G2 dGeG dG|A2 eAgA eA|gedB B A A2|
|:G3 F GABc|d g3 d2 BA|eaag a3 b|gedB B A A2:|

